source/asset/images/icons/icon-suitcase.svg

<svg width="24" height="24" viewBox="0 0 24 24" fill="none" xmlns="http://www.w3.org/2000/svg">
<path d="M8.46667 9.33333H6C5.44772 9.33333 5 9.78105 5 10.3333V17C5 17.5523 5.44772 18 6 18H17C17.5523 18 18 17.5523 18 17V10.3333C18 9.78105 17.5523 9.33333 17 9.33333H14.5333M8.46667 9.33333V12.3667M8.46667 9.33333H14.5333M8.46667 9.33333V8.03333C8.46667 6.35807 9.82474 5 11.5 5V5C13.1753 5 14.5333 6.35807 14.5333 8.03333V9.33333M14.5333 12.3667V9.33333" stroke="#D0BC7A" stroke-width="1.5"/>
</svg>

<svg width="24" height="24" viewBox="0 0 24 24" fill="none" xmlns="http://www.w3.org/2000/svg"><path d="M8.467 9.333H6a1 1 0 00-1 1V17a1 1 0 001 1h11a1 1 0 001-1v-6.667a1 1 0 00-1-1h-2.467m-6.066 0v3.034m0-3.034h6.066m-6.066 0v-1.3A3.033 3.033 0 0111.5 5v0a3.033 3.033 0 013.033 3.033v1.3m0 3.034V9.333" stroke="#D0BC7A" stroke-width="1.5"/></svg>
